src/asset/cabinet/notification.svg

<svg width="24" height="24" viewBox="0 0 24 24" fill="none" xmlns="http://www.w3.org/2000/svg">
    <path fill-rule="evenodd" clip-rule="evenodd" d="M18 10V9C18 5.68629 15.3137 3 12 3C8.68627 3 5.99998 5.68629 5.99998 9V10L4.62125 15.5149C4.30567 16.7772 5.26039 18 6.56153 18H8.61339C8.98651 19.6316 10.2529 21 12 21C13.7471 21 15.0135 19.6316 15.3866 18H17.4384C18.7396 18 19.6943 16.7772 19.3787 15.5149L18 10ZM16 9V10.2462L17.4384 16L6.56153 16L7.99998 10.2462V9C7.99998 6.79086 9.79084 5 12 5C14.2091 5 16 6.79086 16 9ZM13.3008 18H10.6992C10.9867 18.6495 11.5347 19 12 19C12.4653 19 13.0133 18.6495 13.3008 18Z" fill="currentColor"/>
</svg>

<svg width="24" height="24" fill="none" xmlns="http://www.w3.org/2000/svg"><path fill-rule="evenodd" clip-rule="evenodd" d="M18 10V9A6 6 0 006 9v1l-1.379 5.515A2 2 0 006.561 18h2.052c.374 1.632 1.64 3 3.387 3s3.014-1.368 3.387-3h2.051a2 2 0 001.94-2.485L18 10zm-2-1v1.246L17.438 16H6.562L8 10.246V9a4 4 0 018 0zm-2.7 9h-2.6c.287.65.835 1 1.3 1 .465 0 1.013-.35 1.3-1z" fill="currentColor"/></svg>
